assets/img/braze_icons/minimize-02.svg

<svg fill="none" height="24" viewBox="0 0 24 24" width="24" xmlns="http://www.w3.org/2000/svg"><g clip-rule="evenodd" fill="#801ed7" fill-rule="evenodd"><path d="m7.99988 2c.55228 0 1 .44772 1 1v.2413c.00001.80497.00002 1.46933-.0442 2.01053-.04592.56209-.14449 1.0788-.39178 1.56413-.38349.75265-.99541 1.36457-1.74806 1.74807-.48534.24729-1.00204.34585-1.56414.39178-.54119.04421-1.20555.0442-2.01052.04419h-.2413c-.55229 0-1-.44772-1-1s.44771-1 1-1h.2c.85658 0 1.43887-.00078 1.88896-.03755.43842-.03582.66262-.10075.81902-.18044.37632-.19174.68228-.4977.87403-.87403.07969-.1564.14462-.3806.18044-.81902.03677-.45009.03755-1.03238.03755-1.88896v-.2c0-.55228.44771-1 1-1z"/><path d="m5.08884 17.0376c-.45009-.0368-1.03238-.0376-1.88896-.0376h-.2c-.55229 0-1-.4477-1-1s.44771-1 1-1h.2.0413c.80497 0 1.46933 0 2.01052.0442.5621.0459 1.0788.1445 1.56414.3918.75265.3835 1.36457.9954 1.74806 1.748.24729.4854.34586 1.0021.39178 1.5642.04422.5412.04421 1.2055.0442 2.0105v.2413c0 .5523-.44772 1-1 1-.55229 0-1-.4477-1-1v-.2c0-.8566-.00078-1.4389-.03755-1.889-.03582-.4384-.10075-.6626-.18044-.819-.19175-.3763-.49771-.6823-.87403-.874-.1564-.0797-.3806-.1446-.81902-.1804z"/><path d="m15.9999 2c.5523 0 1 .44772 1 1v.2c0 .85658.0008 1.43887.0375 1.88896.0358.43842.1008.66262.1805.81902.1917.37633.4977.68229.874.87403.1564.07969.3806.14462.819.18044.4501.03677 1.0324.03755 1.889.03755h.2c.5523 0 1 .44772 1 1s-.4477 1-1 1h-.2413c-.805.00001-1.4694.00002-2.0105-.04419-.5621-.04593-1.0788-.14449-1.5642-.39178-.7526-.3835-1.3646-.99542-1.748-1.74807-.2473-.48533-.3459-1.00204-.3918-1.56413-.0442-.5412-.0442-1.20556-.0442-2.01053 0-.01373 0-.02749 0-.0413v-.2c0-.55228.4477-1 1-1z"/><path d="m20.7586 15h.2413c.5523 0 1 .4477 1 1s-.4477 1-1 1h-.2c-.8566 0-1.4389.0008-1.889.0376-.4384.0358-.6626.1007-.819.1804-.3763.1917-.6823.4977-.874.874-.0797.1564-.1447.3806-.1805.819-.0367.4501-.0375 1.0324-.0375 1.889v.2c0 .5523-.4477 1-1 1s-1-.4477-1-1v-.2413c0-.805 0-1.4693.0442-2.0105.0459-.5621.1445-1.0788.3918-1.5642.3834-.7526.9954-1.3645 1.748-1.748.4854-.2473 1.0021-.3459 1.5642-.3918.5411-.0442 1.2055-.0442 2.0105-.0442z"/></g></svg>

<svg width="24" height="24" viewBox="0 0 24 24" fill="none" xmlns="http://www.w3.org/2000/svg">
<path fill-rule="evenodd" clip-rule="evenodd" d="M7.99988 2C8.55216 2 8.99988 2.44772 8.99988 3V3.2413C8.99989 4.04627 8.9999 4.71063 8.95568 5.25183C8.90976 5.81392 8.81119 6.33063 8.5639 6.81596C8.18041 7.56861 7.56849 8.18053 6.81584 8.56403C6.3305 8.81132 5.8138 8.90988 5.2517 8.95581C4.71051 9.00002 4.04615 9.00001 3.24118 9H2.99988C2.44759 9 1.99988 8.55228 1.99988 8C1.99988 7.44772 2.44759 7 2.99988 7H3.19988C4.05646 7 4.63875 6.99922 5.08884 6.96245C5.52726 6.92663 5.75146 6.8617 5.90786 6.78201C6.28418 6.59027 6.59014 6.28431 6.78189 5.90798C6.86158 5.75158 6.92651 5.52738 6.96233 5.08896C6.9991 4.63887 6.99988 4.05658 6.99988 3.2V3C6.99988 2.44772 7.44759 2 7.99988 2Z" fill="#801ED7"/>
<path fill-rule="evenodd" clip-rule="evenodd" d="M5.08884 17.0376C4.63875 17.0008 4.05646 17 3.19988 17H2.99988C2.44759 17 1.99988 16.5523 1.99988 16C1.99988 15.4477 2.44759 15 2.99988 15H3.19988C3.21369 15 3.22745 15 3.24118 15C4.04615 15 4.71051 15 5.2517 15.0442C5.8138 15.0901 6.3305 15.1887 6.81584 15.436C7.56849 15.8195 8.18041 16.4314 8.5639 17.184C8.81119 17.6694 8.90976 18.1861 8.95568 18.7482C8.9999 19.2894 8.99989 19.9537 8.99988 20.7587V21C8.99988 21.5523 8.55216 22 7.99988 22C7.44759 22 6.99988 21.5523 6.99988 21V20.8C6.99988 19.9434 6.9991 19.3611 6.96233 18.911C6.92651 18.4726 6.86158 18.2484 6.78189 18.092C6.59014 17.7157 6.28418 17.4097 5.90786 17.218C5.75146 17.1383 5.52726 17.0734 5.08884 17.0376Z" fill="#801ED7"/>
<path fill-rule="evenodd" clip-rule="evenodd" d="M15.9999 2C16.5522 2 16.9999 2.44772 16.9999 3V3.2C16.9999 4.05658 17.0007 4.63887 17.0374 5.08896C17.0732 5.52738 17.1382 5.75158 17.2179 5.90798C17.4096 6.28431 17.7156 6.59027 18.0919 6.78201C18.2483 6.8617 18.4725 6.92663 18.9109 6.96245C19.361 6.99922 19.9433 7 20.7999 7H20.9999C21.5522 7 21.9999 7.44772 21.9999 8C21.9999 8.55228 21.5522 9 20.9999 9H20.7586C19.9536 9.00001 19.2892 9.00002 18.7481 8.95581C18.186 8.90988 17.6693 8.81132 17.1839 8.56403C16.4313 8.18053 15.8193 7.56861 15.4359 6.81596C15.1886 6.33063 15.09 5.81392 15.0441 5.25183C14.9999 4.71063 14.9999 4.04627 14.9999 3.2413C14.9999 3.22757 14.9999 3.21381 14.9999 3.2V3C14.9999 2.44772 15.4476 2 15.9999 2Z" fill="#801ED7"/>
<path fill-rule="evenodd" clip-rule="evenodd" d="M20.7586 15L20.9999 15C21.5522 15 21.9999 15.4477 21.9999 16C21.9999 16.5523 21.5522 17 20.9999 17H20.7999C19.9433 17 19.361 17.0008 18.9109 17.0376C18.4725 17.0734 18.2483 17.1383 18.0919 17.218C17.7156 17.4097 17.4096 17.7157 17.2179 18.092C17.1382 18.2484 17.0732 18.4726 17.0374 18.911C17.0007 19.3611 16.9999 19.9434 16.9999 20.8V21C16.9999 21.5523 16.5522 22 15.9999 22C15.4476 22 14.9999 21.5523 14.9999 21V20.7587C14.9999 19.9537 14.9999 19.2894 15.0441 18.7482C15.09 18.1861 15.1886 17.6694 15.4359 17.184C15.8193 16.4314 16.4313 15.8195 17.1839 15.436C17.6693 15.1887 18.186 15.0901 18.7481 15.0442C19.2892 15 19.9536 15 20.7586 15Z" fill="#801ED7"/>
</svg>
